!!!OTL: "Der Ritter und die Feine " ES STUNDEN DREI ROSEN AUF EINEM ZWEIG
!!!ARE: Europa, Mitteleuropa, Deutschland, Niederrhein
!!!SCT: Z1003
!!!YEM: Copyright 1995, estate of Helmut Schaffrath.
**kern
*ICvox
*Ivox
*M4/4
*k[b-]
*F:
{4c
=1
4f
8g
8b-
4a
8g
8f
=2
4a
8b-
8dd
4cc
4r}
=3
{2ff
8ee
8dd
4cc
=4
4dd
4cc
4r}
{4cc
=5
4ff
8cc
8cc
4dd
8cc
8b-
=6
4a
8b-
8dd
4cc
4r}
=7
{2b-
8a
8g
4f
=8
4g
4f
4r}
==
!!!AGN: Romanze, Ballade
!!!ONB: ESAC (Essen Associative Code) Database: ZUCCAL
!!!AMT: simple quadruple
!!!AIN: vox
!!!EED: Helmut Schaffrath
!!!EEV: 1.0
*-
